symbols/web/library_books/materialsymbolsoutlined/library_books_wght100grad200_48px.svg

<svg xmlns="http://www.w3.org/2000/svg" height="48" width="48"><path d="M19.5 27h8.05v-1.5H19.5Zm0-5.95h14.35v-1.5H19.5Zm0-5.95h14.35v-1.5H19.5Zm-3.85 19.65q-1.4 0-2.375-1-.975-1-.975-2.35V9.2q0-1.4.975-2.375.975-.975 2.375-.975h22.2q1.4 0 2.375.975.975.975.975 2.375v22.2q0 1.35-.975 2.35t-2.375 1Zm0-1.75h22.2q.6 0 1.1-.5.5-.5.5-1.1V9.2q0-.6-.5-1.1-.5-.5-1.1-.5h-22.2q-.6 0-1.1.5-.5.5-.5 1.1v22.2q0 .6.5 1.1.5.5 1.1.5Zm-5.45 7.2q-1.4 0-2.375-1-.975-1-.975-2.35V12.9H8.6v23.95q0 .6.5 1.1.5.5 1.1.5h23.95v1.75Zm3.85-32.6V33 7.6Z"/></svg>

<svg xmlns="http://www.w3.org/2000/svg" height="48" width="48"><path d="M19.5 21.05H33.85V19.55H19.5ZM19.5 27H27.55V25.5H19.5ZM19.5 15.1H33.85V13.6H19.5ZM15.65 34.75Q14.25 34.75 13.275 33.75Q12.3 32.75 12.3 31.4V9.2Q12.3 7.8 13.275 6.825Q14.25 5.85 15.65 5.85H37.85Q39.25 5.85 40.225 6.825Q41.2 7.8 41.2 9.2V31.4Q41.2 32.75 40.225 33.75Q39.25 34.75 37.85 34.75ZM15.65 33H37.85Q38.45 33 38.95 32.5Q39.45 32 39.45 31.4V9.2Q39.45 8.6 38.95 8.1Q38.45 7.6 37.85 7.6H15.65Q15.05 7.6 14.55 8.1Q14.05 8.6 14.05 9.2V31.4Q14.05 32 14.55 32.5Q15.05 33 15.65 33ZM14.05 7.6Q14.05 7.6 14.05 8.05Q14.05 8.5 14.05 9.2V31.4Q14.05 32.1 14.05 32.55Q14.05 33 14.05 33Q14.05 33 14.05 32.55Q14.05 32.1 14.05 31.4V9.2Q14.05 8.5 14.05 8.05Q14.05 7.6 14.05 7.6ZM10.2 40.2Q8.8 40.2 7.825 39.2Q6.85 38.2 6.85 36.85V12.9H8.6V36.85Q8.6 37.45 9.1 37.95Q9.6 38.45 10.2 38.45H34.15V40.2Z"/></svg>
